!!!COM:	Bach, Johann Sebastian
!!!OMV:	Du Lebensfurst, Herr Jesu Christ
!!!OTL:	Du Lebensfurst, Herr Jesu Christ
**kern	**fb	**kern	**kern	**kern	**kern
*part5	*part5	*part4	*part3	*part2	*part1
*staff5	*	*staff4	*staff3	*staff2	*staff1
*I"Continuo	*	*I"Voice	*I"Voice	*I"Voice	*I"Voice
*I'Cont.	*	*I'V	*I'V	*I'V	*I'V
*clefF4	*	*clefF4	*clefGv2	*clefG2	*clefG2
*Trd0c0	*	*	*	*	*
*k[f#]	*	*k[f#]	*k[f#]	*k[f#]	*k[f#]
*M4/4	*	*M4/4	*M4/4	*M4/4	*M4/4
8GL	.	8GL	4B	4d	4g
8F#J	.	8F#J	.	.	.
=2	=2	=2	=2	=2	=2
4E	5	4E	8BL	4e	4g
.	6	.	[8cJ	.	.
4D	6 5	4D	8cL]	4f#	4a
.	.	.	8dJ	.	.
4G	3 5	4G	8BL	8dL	8bL
.	2 #4| 6	.	8AJ	8eJ	8cc#XJ
8F#L	6	8F#L	4A	4f#	4dd
8GJ	.	8GJ	.	.	.
=3	=3	=3	=3	=3	=3
4A	4 5	4A	4A	8eL	4dd
.	6	.	.	8f#J	.
4AA	# 7	4AA	4A	4g	4cc#X
4D;	.	4D;	4A;	4f#;	4dd;
4D#X	6 5	4D#X	8BL	4f#	4b
.	.	.	8AJ	.	.
=4	=4	=4	=4	=4	=4
8EL	6	8EL	8GL	4e	4ccn
8F#J	6 5	8F#J	8AJ	.	.
8GL	.	8GL	8BL	8dL	4b
[8CJ	7 5	8CJ	8cJ	8eJ	.
8CL]	6 4 2	8cL	4dn	4f#	4a
8BBJ	.	8BJ	.	.	.
8AAL	7 4 2	8AL	4d	4g	4b
8GGJ	.	8GJ	.	.	.
=	=	=	=	=	=
4D	5 4	4d	4.d	4g	2a
4DD	3	4D	.	4f#	.
.	.	.	8c	.	.
4GG;	.	4G;	4B;	4d;	4g;
=5:|!	=5:|!	=5:|!	=5:|!	=5:|!	=5:|!
4D	.	4D	8dL	8f#L	4a
.	.	.	8eJ	8gJ	.
=6	=6	=6	=6	=6	=6
!!linebreak:original
8dL	.	8dL	8f#L	4.a	4a
8cJ	.	8cJ	8eJ	.	.
4B	7	4B	4d	.	4b
.	#6\	.	.	8g#X	.
4A	.	4A	4e	8aL	4cc
.	.	.	.	8g#J	.
4D#X	7 5	4D#X	4f#	4a	4cc
=7	=7	=7	=7	=7	=7
4E	5 4	4E	4B	4a	8bL
.	.	.	.	.	8aJ
4EE	#	4E	8eL	4g#X	4b
.	.	.	8dJ	.	.
4AA;	.	4AA;	4c;	4e;	4a;
8EL	n	8EL	8GnL	8eL	4b
8F#J	.	8F#J	8AJ	8d#XJ	.
=8	=8	=8	=8	=8	=8
4G	.	4G	8BL	4e	4b
.	.	.	8cJ	.	.
4G#X	6 5	4G#X	8dnL	4e	4b
.	.	.	8eJ	.	.
4A	3 5	4A	4c	8eL	8ccL
.	4 6	.	.	8f#J	8ddJ
4A#X	7 5	4A#X	4c#X	8gnL	4ee
.	6	.	.	8f#J	.
=9	=9	=9	=9	=9	=9
4B	5 4	4B	4B	8f#L	4ee
.	.	.	.	8gJ	.
4BB	#	4BB	4B	4an	4dd#X
4E;	.	4E;	4B;	4g;	4ee;
8DL	.	8dnL	4dn	4a	4ff#
8CJ	.	8cnJ	.	.	.
=10	=10	=10	=10	=10	=10
8BBL	.	8BL	4d	8gL	4gg
8AAJ	.	8AJ	.	8aJ	.
8GGL	.	8GL	4g	4b	4b
8FF#J	.	8F#J	.	.	.
8EEL	6 5	8EL	8GL	8bL	4cc
8FF#J	6 5	8F#J	8AJ	8aJ	.
8GGL	9	8GL	4B	8aL	4b
8EEJ	3	8EJ	.	8gJ	.
=11	=11	=11	=11	=11	=11
!!pagebreak:original
8C#XL	6 5	8C#XL	8eL	2g	2a
8BB	.	8BB	8d	.	.
8C#	.	8C#	8e	.	.
8AAJ	#	8AAJ	8c#XJ	.	.
4D;	.	4D;	4d;	4f#;	4a;
4BB	6	4BB	4d	8gL	4dd
.	.	.	.	8f#J	.
=12	=12	=12	=12	=12	=12
4C	9	4Cn	8dL	4e	4ee
.	8	.	8cnJ	.	.
4D	7	4D	8cL	4f#	4dd
.	6	.	8BJ	.	.
8EL	6 5	8EL	8BL	8gL	4cc
8F#J	6 5	8F#J	8AJ	8aJ	.
4G	.	4G	4G	4d	8bL
.	.	.	.	.	8ccJ
=13	=13	=13	=13	=13	=13
4C	6 5	4C	8G	4e	2a
.	.	.	16F#LL	.	.
.	.	.	16EJJ	.	.
4D	.	4D	4F#	4d	.
4GG;	.	4GG;	4B;	4d;	4g;
=||	=||	=||	=||	=||	=||
*-	*-	*-	*-	*-	*-
!!!system-decoration: s1,s2,s3,s4,s5
